www/assets/icons/mosque.svg

<svg xmlns="http://www.w3.org/2000/svg" width="24" height="24" viewBox="0 0 24 24" fill='currentColor'><path d="M7 9h10c.29 0 .57.06.84.13.09-.33.16-.67.16-1.04 0-1.31-.65-2.53-1.74-3.25L12 2 7.74 4.84A3.89 3.89 0 0 0 6 8.09c0 .37.07.71.16 1.04.27-.07.55-.13.84-.13"/><path d="M24 8c0-1.1-2-3-2-3s-2 1.9-2 3c0 .74.4 1.38 1 1.72V14h-2v-2c0-1.1-.9-2-2-2H7c-1.1 0-2 .9-2 2v2H3V9.72c.6-.34 1-.98 1-1.72 0-1.1-2-3-2-3S0 6.9 0 8c0 .74.4 1.38 1 1.72V22h9v-4c0-1.1.9-2 2-2s2 .9 2 2v4h9V9.72c.6-.34 1-.98 1-1.72"/></svg>

<svg width="24" height="24" viewBox="0 0 24 24" xmlns="http://www.w3.org/2000/svg" fill='currentColor'><path d="M7 9H17C17.29 9 17.57 9.06 17.84 9.13C17.93 8.8 18 8.46 18 8.09C18 6.78 17.35 5.56 16.26 4.84L12 2L7.74 4.84C6.65 5.56 6 6.78 6 8.09C6 8.46 6.07 8.8 6.16 9.13C6.43 9.06 6.71 9 7 9Z"/><path d="M24 8C24 6.9 22 5 22 5C22 5 20 6.9 20 8C20 8.74 20.4 9.38 21 9.72V14H19V12C19 10.9 18.1 10 17 10H7C5.9 10 5 10.9 5 12V14H3V9.72C3.6 9.38 4 8.74 4 8C4 6.9 2 5 2 5C2 5 0 6.9 0 8C0 8.74 0.4 9.38 1 9.72V22H10V18C10 16.9 10.9 16 12 16C13.1 16 14 16.9 14 18V22H23V9.72C23.6 9.38 24 8.74 24 8Z"/></svg>
